X:323
T: "Der Ritter und die Feine "
N: Z1003
O: Europa, Mitteleuropa, Deutschland, Niederrhein
R: Romanze, Ballade
M: 4/4
L: 1/8
K: F
C2 | F2GBA2GF | A2Bdc2z2 |
f4edc2 | d2c2z2
c2 | f2ccd2cB | A2Bdc2z2 |
B4AGF2 | G2F2z2

@@@ Tune index: 10081
